!!!SOCIAL_FUNCTION:	love songs
!!!PDT:	1913
!!!OTL: No_112_Song_of_an_Ambitious_Mother.krn
!!!REG: Great_Lakes
!!!LANG: Non-Tone
!!!LING_GROUP: Algonquin
**kern
*staff1
=1-
*clefG2
*k[b-e-a-]
*M3/4
4B-/
4B-/
4B-/
=2
4e-/
2e-/
=3
(4.e-/
8B-/)
4B-/
=4
4e-/
4e-/
4e-/
=5
4f/
2f/
=6
(2f/
4e-/)
=7
2e-/
4b-\
=8
2e-/
4c/
=9
2.c/
=10
[2.B-/
=11
4B-/]
4B-/
4B-/
=12
2e-/
4e-/
=13
4e-/
4e-/
4B-/
=14||
*M2/4
4e-/
4e-/
=15||
*M3/4
2f/
4f/
=16
2f/
4e-/
=17||
*M2/4
4e-/
4e-/
=18||
*M3/4
2b-\
4e-/
=19
2.c/
=20
2.B-/
==
*-
